src/assets/Imgs/profileCom/diwcord.svg

<svg fill="none" height="25" viewBox="0 0 25 25" width="25" xmlns="http://www.w3.org/2000/svg"><path clip-rule="evenodd" d="m16.4098 18.4542s-.4932-.589-.9041-1.1096c1.7945-.5068 2.4794-1.6301 2.4794-1.6301-.5616.3699-1.0959.6301-1.5753.8082-.685.2877-1.3425.4795-1.9863.5891-1.3151.2465-2.5206.178-3.548-.0137-.7808-.1507-1.45202-.3699-2.01366-.5891-.31507-.1233-.65754-.2739-1-.4657-.02055-.0137-.0411-.024-.06165-.0343s-.04109-.0205-.06164-.0342c-.0274-.0137-.0411-.0274-.0548-.0411-.24657-.137-.38356-.2329-.38356-.2329s.65754 1.0959 2.39726 1.6164c-.41095.5206-.91781 1.137-.91781 1.137-3.02739-.0959-4.17808-2.0822-4.17808-2.0822 0-4.4109 1.97261-7.98626 1.97261-7.98626 1.9726-1.47946 3.84933-1.43836 3.84933-1.43836l.137.16438c-2.46579.71233-3.60277 1.79452-3.60277 1.79452s.30137-.16438.80822-.39726c1.46575-.64383 2.63015-.82191 3.10955-.86301l.0307-.00519c.0691-.01177.1305-.02221.2022-.02221.8356-.10959 1.7808-.13698 2.7671-.02739 1.3014.15068 2.6987.53424 4.1233 1.31506 0 0-1.0822-1.02739-3.4109-1.73972l.1917-.21918s1.8768-.0411 3.8494 1.43836c0 0 1.9726 3.57536 1.9726 7.98626 0 0-1.1644 1.9863-4.1918 2.0822zm-4.8082-5.0069c0 .8284-.6716 1.5-1.5 1.5-.82846 0-1.50004-.6716-1.50004-1.5 0-.8285.67158-1.5 1.50004-1.5.8284 0 1.5.6715 1.5 1.5zm3.5 1.5c.8284 0 1.5-.6716 1.5-1.5 0-.8285-.6716-1.5-1.5-1.5-.8285 0-1.5.6715-1.5 1.5 0 .8284.6715 1.5 1.5 1.5z" fill="#4a4bda" fill-rule="evenodd"/></svg>

<svg width="25" height="25" viewBox="0 0 25 25" fill="none" xmlns="http://www.w3.org/2000/svg">
<g id="Dis">
<path id="Exclude" fill-rule="evenodd" clip-rule="evenodd" d="M16.4098 18.4542C16.4098 18.4542 15.9166 17.8652 15.5057 17.3446C17.3002 16.8378 17.9851 15.7145 17.9851 15.7145C17.4235 16.0844 16.8892 16.3446 16.4098 16.5227C15.7248 16.8104 15.0673 17.0022 14.4235 17.1118C13.1084 17.3583 11.9029 17.2898 10.8755 17.0981C10.0947 16.9474 9.42348 16.7282 8.86184 16.509C8.54677 16.3857 8.2043 16.2351 7.86184 16.0433C7.84129 16.0296 7.82074 16.0193 7.80019 16.009C7.77964 15.9987 7.7591 15.9885 7.73855 15.9748C7.71115 15.9611 7.69745 15.9474 7.68375 15.9337C7.43718 15.7967 7.30019 15.7008 7.30019 15.7008C7.30019 15.7008 7.95773 16.7967 9.69745 17.3172C9.2865 17.8378 8.77964 18.4542 8.77964 18.4542C5.75225 18.3583 4.60156 16.372 4.60156 16.372C4.60156 11.9611 6.57417 8.38574 6.57417 8.38574C8.54677 6.90628 10.4235 6.94738 10.4235 6.94738L10.5605 7.11176C8.09471 7.82409 6.95773 8.90628 6.95773 8.90628C6.95773 8.90628 7.2591 8.7419 7.76595 8.50902C9.2317 7.86519 10.3961 7.68711 10.8755 7.64601L10.9062 7.64082C10.9753 7.62905 11.0367 7.61861 11.1084 7.61861C11.944 7.50902 12.8892 7.48163 13.8755 7.59122C15.1769 7.7419 16.5742 8.12546 17.9988 8.90628C17.9988 8.90628 16.9166 7.87889 14.5879 7.16656L14.7796 6.94738C14.7796 6.94738 16.6564 6.90628 18.629 8.38574C18.629 8.38574 20.6016 11.9611 20.6016 16.372C20.6016 16.372 19.4372 18.3583 16.4098 18.4542ZM11.6016 13.4473C11.6016 14.2757 10.93 14.9473 10.1016 14.9473C9.27314 14.9473 8.60156 14.2757 8.60156 13.4473C8.60156 12.6188 9.27314 11.9473 10.1016 11.9473C10.93 11.9473 11.6016 12.6188 11.6016 13.4473ZM15.1016 14.9473C15.93 14.9473 16.6016 14.2757 16.6016 13.4473C16.6016 12.6188 15.93 11.9473 15.1016 11.9473C14.2731 11.9473 13.6016 12.6188 13.6016 13.4473C13.6016 14.2757 14.2731 14.9473 15.1016 14.9473Z" fill="#4A4BDA"/>
</g>
</svg>
